packages/kaspersky-hexa-ui-icons/src/iconsSVGs/24/Web.svg

<svg width="24" height="24" viewBox="0 0 24 24" fill="none" xmlns="http://www.w3.org/2000/svg">
<path d="M2 12C2 6.47715 6.47715 2 12 2C17.5228 2 22 6.47715 22 12C22 17.5228 17.5228 22 12 22C6.47715 22 2 17.5228 2 12ZM11.1324 4.43166C10.778 4.76892 10.4134 5.30422 10.0854 6.04218C9.52392 7.30546 9.12736 9.03347 9.02567 11H14.9743C14.8726 9.03347 14.4761 7.30546 13.9146 6.04218C13.5866 5.30422 13.222 4.76892 12.8676 4.43166C12.5184 4.0993 12.2269 4 12 4C11.7731 4 11.4816 4.0993 11.1324 4.43166ZM7.02328 11C7.12643 8.79597 7.56798 6.78191 8.25776 5.2299C8.31802 5.09431 8.38064 4.96122 8.44561 4.83099C6.09485 5.99874 4.39999 8.2887 4.06189 11H7.02328ZM4.06189 13C4.39999 15.7113 6.09485 18.0013 8.44561 19.169C8.38064 19.0388 8.31802 18.9057 8.25776 18.7701C7.56798 17.2181 7.12643 15.204 7.02328 13H4.06189ZM19.9381 11C19.6 8.2887 17.9052 5.99874 15.5544 4.83099C15.6194 4.96122 15.682 5.09431 15.7422 5.2299C16.432 6.78191 16.8736 8.79597 16.9767 11H19.9381ZM16.9767 13C16.8736 15.204 16.432 17.2181 15.7422 18.7701C15.682 18.9057 15.6194 19.0388 15.5544 19.169C17.9052 18.0013 19.6 15.7113 19.9381 13H16.9767ZM14.9743 13H9.02567C9.12736 14.9665 9.52392 16.6945 10.0854 17.9578C10.4134 18.6958 10.778 19.2311 11.1324 19.5683C11.4816 19.9007 11.7731 20 12 20C12.2269 20 12.5184 19.9007 12.8676 19.5683C13.222 19.2311 13.5866 18.6958 13.9146 17.9578C14.4761 16.6945 14.8726 14.9665 14.9743 13Z" fill="black"/>
</svg>

<svg xmlns="http://www.w3.org/2000/svg" width="24" height="24" fill="none" viewBox="0 0 24 24"><path fill="#000" fill-rule="evenodd" d="M2 12C2 6.4772 6.4772 2 12 2s10 4.4772 10 10-4.4772 10-10 10S2 17.5228 2 12m9.1324-7.5683c-.3544.3372-.719.8725-1.047 1.6105C9.5239 7.3055 9.1274 9.0335 9.0257 11h5.9486c-.1017-1.9665-.4982-3.6945-1.0597-4.9578-.328-.738-.6926-1.2733-1.047-1.6105C12.5184 4.0993 12.2269 4 12 4s-.5184.0993-.8676.4317M7.0233 11c.1031-2.204.5447-4.218 1.2345-5.7701a10 10 0 0 1 .1878-.399C6.0948 5.9988 4.4 8.2888 4.062 11zm-2.9614 2c.338 2.7113 2.033 5.0013 4.3837 6.169a10 10 0 0 1-.1878-.3989C7.568 17.2181 7.1264 15.204 7.0233 13zm15.8762-2c-.3381-2.7113-2.0329-5.0013-4.3837-6.169q.0975.1954.1878.3989c.6898 1.552 1.1314 3.566 1.2345 5.7701zm-2.9614 2c-.1031 2.204-.5447 4.2181-1.2345 5.7701a10 10 0 0 1-.1878.3989C17.9052 18.0013 19.6 15.7113 19.9381 13zm-2.0024 0H9.0257c.1017 1.9665.4982 3.6945 1.0597 4.9578.328.738.6926 1.2733 1.047 1.6105.3492.3324.6407.4317.8676.4317s.5184-.0993.8676-.4317c.3544-.3372.719-.8725 1.047-1.6105.5615-1.2633.958-2.9913 1.0597-4.9578"/></svg>
